22x22/apps/Joplin.svg

<svg xmlns="http://www.w3.org/2000/svg" width="22" height="22" version="1">
 <g transform="translate(-1,-1)">
  <rect width="20" height="20" x="2" y="2.5" rx="6" ry="6" style="opacity:0.2"/>
  <rect width="20" height="20" x="2" y="2" rx="6" ry="6" style="fill:#176fd0"/>
  <path d="M 11,7.5 V 5.5 H 18 V 7.5 H 16.5 C 16.5,7.5 16,7.5 16,8 V 16 C 16,17 15.5,19.5 11.5,19.5 8,19.5 6.1,16.728 6.1,14.25 6.1,9.25 12,10.75 12,10.75 V 13.5 C 12,13.5 11.5,13 10.5,13 9.8991,13 9,13.5 9,14.5 9,15.802 10.3,16.5 11.3,16.5 12.8,16.5 13,15.5 13,15 V 8 C 13,7.5 12.5,7.5 12.5,7.5 Z" style="opacity:0.2"/>
  <path d="M 11,7 V 5 H 18 V 7 H 16.5 C 16.5,7 16,7 16,7.5 V 15.5 C 16,16.5 15.5,19 11.5,19 8,19 6.1,16.228 6.1,13.75 6.1,8.75 12,10.25 12,10.25 V 13 C 12,13 11.5,12.5 10.5,12.5 9.8991,12.5 9,13 9,14 9,15.302 10.3,16 11.3,16 12.8,16 13,15 13,14.5 V 7.5 C 13,7 12.5,7 12.5,7 Z" style="fill:#f4f4f7"/>
  <path style="opacity:0.1;fill:#f4f4f7" d="M 8,2 C 4.676,2 2,4.676 2,8 V 8.5 C 2,5.176 4.676,2.5 8,2.5 H 16 C 19.324,2.5 22,5.176 22,8.5 V 8 C 22,4.676 19.324,2 16,2 Z"/>
 </g>
</svg>

<svg xmlns="http://www.w3.org/2000/svg" width="22" height="22" version="1"><g transform="translate(-1 -1)"><rect width="20" height="20" x="2" y="2.5" rx="6" ry="6" style="opacity:.2"/><rect width="20" height="20" x="2" y="2" rx="6" ry="6" style="fill:#176fd0"/><path d="M11 7.5v-2h7v2h-1.5s-.5 0-.5.5v8c0 1-.5 3.5-4.5 3.5-3.5 0-5.4-2.772-5.4-5.25 0-5 5.9-3.5 5.9-3.5v2.75s-.5-.5-1.5-.5c-.6 0-1.5.5-1.5 1.5 0 1.302 1.3 2 2.3 2 1.5 0 1.7-1 1.7-1.5V8c0-.5-.5-.5-.5-.5z" style="opacity:.2"/><path d="M11 7V5h7v2h-1.5s-.5 0-.5.5v8c0 1-.5 3.5-4.5 3.5-3.5 0-5.4-2.772-5.4-5.25 0-5 5.9-3.5 5.9-3.5V13s-.5-.5-1.5-.5C9.9 12.5 9 13 9 14c0 1.302 1.3 2 2.3 2 1.5 0 1.7-1 1.7-1.5v-7c0-.5-.5-.5-.5-.5z" style="fill:#f4f4f7"/><path style="opacity:.1;fill:#f4f4f7" d="M8 2C4.676 2 2 4.676 2 8v.5c0-3.324 2.676-6 6-6h8c3.324 0 6 2.676 6 6V8c0-3.324-2.676-6-6-6z"/></g></svg>
